assets/img/i-promotion.svg

<svg xmlns="http://www.w3.org/2000/svg" viewBox="0 0 400 400" enable-background="new 0 0 400 400"><path fill="#2B2B2B" d="M82.6 60.5h237.4c11 0 20 9 20 20v237.3c0 11-9 20-20 20h-237.4c-11 0-20-9-20-20v-237.3c0-11.1 9-20 20-20z"/><path stroke="#fff" stroke-width=".5" stroke-linecap="round" stroke-miterlimit="10" d="M89.8 60.5v278.6m27.9-278.6v278.6m27.8-278.6v278.6m27.9-278.6v278.6m27.9-278.6v278.6m27.9-278.6v278.6m27.8-278.6v278.6m27.9-278.6v278.6m27.9-278.6v278.6" fill="none"/><path d="M61.9 251.3l3.7 3.4m7.3 6.6l4 3.6c4.1 3.7 10.1 3 13.3-1.4l12.3-17c3.2-4.5 8.8-4.7 12.3-.5l1.1 1.3c3.5 4.2 8.9 3.9 11.9-.7l28.5-44c3-4.6 8.6-5.2 12.5-1.3l24.7 24.6c3.9 3.9 9.1 3 11.5-1.9l33.6-68.9c2.4-4.9 7.4-5.7 11.1-1.6l21.2 23.2c3.7 4.1 9.3 3.7 12.5-.8l48.7-69.4m2.9-4.1l2.8-4.1" stroke="#fff" stroke-width="4" stroke-linecap="round" stroke-miterlimit="10" fill="none"/></svg>

<svg xmlns="http://www.w3.org/2000/svg" viewBox="0 0 400 400" enable-background="new 0 0 400 400"><path fill="#2B2B2B" d="M82.6 60.5h237.4c11 0 20 9 20 20v237.3c0 11-9 20-20 20h-237.4c-11 0-20-9-20-20v-237.3c0-11.1 9-20 20-20z"/><path stroke="#fff" stroke-width=".5" stroke-linecap="round" stroke-miterlimit="10" fill="none" d="M89.8 60.5v278.6M117.7 60.5v278.6M145.5 60.5v278.6M173.4 60.5v278.6M201.3 60.5v278.6M229.2 60.5v278.6M257 60.5v278.6M284.9 60.5v278.6M312.8 60.5v278.6"/><g stroke="#fff" stroke-width="4" stroke-linecap="round" stroke-miterlimit="10" fill="none"><path d="M61.9 251.3l3.7 3.4M72.9 261.3l4 3.6c4.1 3.7 10.1 3 13.3-1.4l12.3-17c3.2-4.5 8.8-4.7 12.3-.5l1.1 1.3c3.5 4.2 8.9 3.9 11.9-.7l28.5-44c3-4.6 8.6-5.2 12.5-1.3l24.7 24.6c3.9 3.9 9.1 3 11.5-1.9l33.6-68.9c2.4-4.9 7.4-5.7 11.1-1.6l21.2 23.2c3.7 4.1 9.3 3.7 12.5-.8l48.7-69.4M335 102.4l2.8-4.1"/></g></svg>
